public/assets/Selected effets.svg

<svg width="74" height="80" viewBox="0 0 74 80" fill="none" xmlns="http://www.w3.org/2000/svg">
<g id="Selected effets">
<g id="Blur" filter="url(#filter0_f_1_226)">
<path d="M28 8.6188C32.9504 5.76068 39.0496 5.76068 44 8.6188L59.1769 17.3812C64.1273 20.2393 67.1769 25.5214 67.1769 31.2376V48.7624C67.1769 54.4786 64.1273 59.7607 59.1769 62.6188L44 71.3812C39.0496 74.2393 32.9504 74.2393 28 71.3812L12.8231 62.6188C7.87267 59.7607 4.82309 54.4786 4.82309 48.7624V31.2376C4.82309 25.5214 7.87267 20.2393 12.8231 17.3812L28 8.6188Z" fill="url(#paint0_linear_1_226)"/>
<path d="M44.5 7.75278C39.2402 4.71602 32.7598 4.71602 27.5 7.75278L12.3231 16.5152C7.06327 19.5519 3.82309 25.1641 3.82309 31.2376V48.7624C3.82309 54.8359 7.06327 60.4481 12.3231 63.4848L27.5 72.2472C32.7598 75.284 39.2402 75.284 44.5 72.2472L59.6769 63.4848C64.9367 60.4481 68.1769 54.8359 68.1769 48.7624V31.2376C68.1769 25.1641 64.9367 19.5519 59.6769 16.5152L44.5 7.75278Z" stroke="url(#paint1_linear_1_226)" stroke-width="2"/>
</g>
<g id="Polygon 12">
<path d="M28.25 9.05182C33.0457 6.28301 38.9543 6.28301 43.75 9.05182L58.9269 17.8142C63.7226 20.583 66.6769 25.7 66.6769 31.2376V48.7624C66.6769 54.3 63.7226 59.417 58.9269 62.1858L43.75 70.9482C38.9543 73.717 33.0457 73.717 28.25 70.9482L13.0731 62.1858C8.27737 59.417 5.32309 54.3 5.32309 48.7624V31.2376C5.32309 25.7 8.27737 20.583 13.0731 17.8142L28.25 9.05182Z" fill="url(#paint2_linear_1_226)"/>
<path d="M28.25 9.05182C33.0457 6.28301 38.9543 6.28301 43.75 9.05182L58.9269 17.8142C63.7226 20.583 66.6769 25.7 66.6769 31.2376V48.7624C66.6769 54.3 63.7226 59.417 58.9269 62.1858L43.75 70.9482C38.9543 73.717 33.0457 73.717 28.25 70.9482L13.0731 62.1858C8.27737 59.417 5.32309 54.3 5.32309 48.7624V31.2376C5.32309 25.7 8.27737 20.583 13.0731 17.8142L28.25 9.05182Z" stroke="white" style="mix-blend-mode:overlay"/>
</g>
</g>
<defs>
<filter id="filter0_f_1_226" x="-1.17694" y="0.475212" width="74.3538" height="79.0496" filterUnits="userSpaceOnUse" color-interpolation-filters="sRGB">
<feFlood flood-opacity="0" result="BackgroundImageFix"/>
<feBlend mode="normal" in="SourceGraphic" in2="BackgroundImageFix" result="shape"/>
<feGaussianBlur stdDeviation="2" result="effect1_foregroundBlur_1_226"/>
</filter>
<linearGradient id="paint0_linear_1_226" x1="32.5" y1="42" x2="12.5" y2="64" gradientUnits="userSpaceOnUse">
<stop stop-color="#C441F4"/>
<stop offset="1" stop-color="#00DAEA"/>
</linearGradient>
<linearGradient id="paint1_linear_1_226" x1="36" y1="4" x2="36" y2="76" gradientUnits="userSpaceOnUse">
<stop stop-color="#C618FF"/>
<stop offset="1" stop-color="#00C3FB"/>
</linearGradient>
<linearGradient id="paint2_linear_1_226" x1="32.5" y1="42" x2="12.5" y2="64" gradientUnits="userSpaceOnUse">
<stop stop-color="#C441F4"/>
<stop offset="1" stop-color="#00DAEA"/>
</linearGradient>
</defs>
</svg>

<svg width="74" height="80" fill="none" xmlns="http://www.w3.org/2000/svg"><g filter="url(#a)"><path d="M28 8.619a16 16 0 0 1 16 0l15.177 8.762a16 16 0 0 1 8 13.857v17.524a16 16 0 0 1-8 13.857L44 71.38a16 16 0 0 1-16 0L12.823 62.62a16 16 0 0 1-8-13.857V31.238a16 16 0 0 1 8-13.857L28 8.62Z" fill="url(#b)"/><path d="M44.5 7.753a17 17 0 0 0-17 0l-15.177 8.762a17 17 0 0 0-8.5 14.723v17.524a17 17 0 0 0 8.5 14.723L27.5 72.247a17 17 0 0 0 17 0l15.177-8.762a17 17 0 0 0 8.5-14.723V31.238a17 17 0 0 0-8.5-14.723L44.5 7.753Z" stroke="url(#c)" stroke-width="2"/></g><path d="M28.25 9.052a15.5 15.5 0 0 1 15.5 0l15.177 8.762a15.5 15.5 0 0 1 7.75 13.424v17.524a15.5 15.5 0 0 1-7.75 13.424L43.75 70.948a15.5 15.5 0 0 1-15.5 0l-15.177-8.762a15.5 15.5 0 0 1-7.75-13.424V31.238a15.5 15.5 0 0 1 7.75-13.424L28.25 9.052Z" fill="url(#d)"/><path d="M28.25 9.052a15.5 15.5 0 0 1 15.5 0l15.177 8.762a15.5 15.5 0 0 1 7.75 13.424v17.524a15.5 15.5 0 0 1-7.75 13.424L43.75 70.948a15.5 15.5 0 0 1-15.5 0l-15.177-8.762a15.5 15.5 0 0 1-7.75-13.424V31.238a15.5 15.5 0 0 1 7.75-13.424L28.25 9.052Z" stroke="#fff" style="mix-blend-mode:overlay"/><defs><linearGradient id="b" x1="32.5" y1="42" x2="12.5" y2="64" gradientUnits="userSpaceOnUse"><stop stop-color="#C441F4"/><stop offset="1" stop-color="#00DAEA"/></linearGradient><linearGradient id="c" x1="36" y1="4" x2="36" y2="76" gradientUnits="userSpaceOnUse"><stop stop-color="#C618FF"/><stop offset="1" stop-color="#00C3FB"/></linearGradient><linearGradient id="d" x1="32.5" y1="42" x2="12.5" y2="64" gradientUnits="userSpaceOnUse"><stop stop-color="#C441F4"/><stop offset="1" stop-color="#00DAEA"/></linearGradient><filter id="a" x="-1.177" y=".475" width="74.354" height="79.05" filterUnits="userSpaceOnUse" color-interpolation-filters="sRGB"><feFlood flood-opacity="0" result="BackgroundImageFix"/><feBlend in="SourceGraphic" in2="BackgroundImageFix" result="shape"/><feGaussianBlur stdDeviation="2" result="effect1_foregroundBlur_1_226"/></filter></defs></svg>
